X:2802
T:Pretty Polly
P:Miss Rose's Strathspey
C:Athole Coll.
R:Strathspey (8x32)
B:RSCDS 28-2
Z:Anselm Lingnau <anselm@strathspey.org>
M:C
L:1/8
K:A
%%scale 0.81
e|"A"A/A/A c>A "E7"d>B "A"e>c|"Bm"(3def (3edc "E7"d<BB>c|\
    "A"A/A/A c>A "E7"d>B "A"e>c|"Bm"d/c/B/A/ "E"G>B "A"A/A/A Ae|
  "A"A/A/A c>A "E7"d>B "A"e>c|"Bm"(3def (3edc "E7"d<BB>c|\
    "A"A/A/A c>A "E7"d>B "A"e>c|"Bm"d/c/B/A/ "E"G>B "A"A/A/A A||
e|"A"a>b a>b e<c c>A|"D"(3def "A"(3edc "E7"d>B B>e|\
  "A"a>b a>b e<c c>A|"Bm"d/c/B/A/ "E"G>B "A"A/A/A A>g|
  "F#m"(3aba "E"(3gag "D"(3fgf "A/C#"e>c|"Bm"(3def "A"edc "E7"d>B B>c|\
  "A"(3AEA (3cAc "Bm"(3dBd "A/C#"(3ece|"D"(3fdf "E"geg "A"a<A A|]

